assets/img/braze_icons/sliders-01.svg

<svg fill="none" height="24" viewBox="0 0 24 24" width="24" xmlns="http://www.w3.org/2000/svg"><g fill="#801ed7"><path d="m5 2c.55228 0 1 .44772 1 1v7c0 .5523-.44772 1-1 1s-1-.4477-1-1v-7c0-.55228.44772-1 1-1z"/><path d="m6 15h2c.55228 0 1-.4477 1-1s-.44772-1-1-1h-6c-.55228 0-1 .4477-1 1s.44772 1 1 1h2v6c0 .5523.44772 1 1 1s1-.4477 1-1z"/><path d="m13 12c0-.5523-.4477-1-1-1s-1 .4477-1 1v9c0 .5523.4477 1 1 1s1-.4477 1-1z"/><path d="m12 2c.5523 0 1 .44772 1 1v4h2c.5523 0 1 .44772 1 1s-.4477 1-1 1h-6c-.55228 0-1-.44772-1-1s.44772-1 1-1h2v-4c0-.55228.4477-1 1-1z"/><path d="m22 15c.5523 0 1 .4477 1 1s-.4477 1-1 1h-2v4c0 .5523-.4477 1-1 1s-1-.4477-1-1v-4h-2c-.5523 0-1-.4477-1-1s.4477-1 1-1z"/><path d="m19 2c.5523 0 1 .44772 1 1v9c0 .5523-.4477 1-1 1s-1-.4477-1-1v-9c0-.55228.4477-1 1-1z"/></g></svg>

<svg width="24" height="24" viewBox="0 0 24 24" fill="none" xmlns="http://www.w3.org/2000/svg">
<path d="M5 2C5.55228 2 6 2.44772 6 3V10C6 10.5523 5.55228 11 5 11C4.44772 11 4 10.5523 4 10V3C4 2.44772 4.44772 2 5 2Z" fill="#801ED7"/>
<path d="M6 15H8C8.55228 15 9 14.5523 9 14C9 13.4477 8.55228 13 8 13H2C1.44772 13 1 13.4477 1 14C1 14.5523 1.44772 15 2 15H4V21C4 21.5523 4.44772 22 5 22C5.55228 22 6 21.5523 6 21V15Z" fill="#801ED7"/>
<path d="M13 12C13 11.4477 12.5523 11 12 11C11.4477 11 11 11.4477 11 12V21C11 21.5523 11.4477 22 12 22C12.5523 22 13 21.5523 13 21V12Z" fill="#801ED7"/>
<path d="M12 2C12.5523 2 13 2.44772 13 3V7H15C15.5523 7 16 7.44772 16 8C16 8.55228 15.5523 9 15 9H9C8.44772 9 8 8.55228 8 8C8 7.44772 8.44772 7 9 7H11V3C11 2.44772 11.4477 2 12 2Z" fill="#801ED7"/>
<path d="M22 15C22.5523 15 23 15.4477 23 16C23 16.5523 22.5523 17 22 17H20V21C20 21.5523 19.5523 22 19 22C18.4477 22 18 21.5523 18 21V17H16C15.4477 17 15 16.5523 15 16C15 15.4477 15.4477 15 16 15H22Z" fill="#801ED7"/>
<path d="M19 2C19.5523 2 20 2.44772 20 3V12C20 12.5523 19.5523 13 19 13C18.4477 13 18 12.5523 18 12V3C18 2.44772 18.4477 2 19 2Z" fill="#801ED7"/>
</svg>
